X:80
T:SLYLDMN2- The Blythsome Bridal
S:from Orpheus Caledonius, I, 1733
Q:1/4=120
L:1/4
M:6/4
K:G dorian
C|F3/2 G/FAcd|cAFGAF|(GA)cd2c|F3/2 G/Ffed|cAFGAc|(AG)FD2||\
c|fcffgf|edcdcd|(fg)ag2f|fcffgf|edc(d/e/)fd|cAFG2|]

